src/assets/outline/Messages.svg

<svg width="24" height="24" viewBox="0 0 24 24"  xmlns="http://www.w3.org/2000/svg">
<path d="M9.98999 22.78C9.38999 22.78 8.81999 22.48 8.42999 21.95L7.23001 20.35C7.23001 20.36 7.18 20.33 7.16 20.33H6.79001C3.37001 20.33 1.25 19.4 1.25 14.79V10.79C1.25 6.58001 3.82001 5.48001 5.98001 5.29001C6.22001 5.26001 6.50001 5.25 6.79001 5.25H13.19C16.81 5.25 18.73 7.17001 18.73 10.79V14.79C18.73 15.08 18.72 15.36 18.68 15.63C18.5 17.76 17.4 20.33 13.19 20.33H12.79L11.55 21.95C11.16 22.48 10.59 22.78 9.98999 22.78ZM6.79001 6.75C6.56001 6.75 6.34 6.76 6.13 6.78C3.81 6.98 2.75 8.25001 2.75 10.79V14.79C2.75 18.22 3.81001 18.83 6.79001 18.83H7.19C7.64 18.83 8.14999 19.08 8.42999 19.44L9.63 21.05C9.85001 21.35 10.13 21.35 10.35 21.05L11.55 19.45C11.84 19.06 12.3 18.83 12.79 18.83H13.19C15.73 18.83 17 17.76 17.19 15.48C17.22 15.24 17.23 15.02 17.23 14.79V10.79C17.23 8.00001 15.98 6.75 13.19 6.75H6.79001Z" />
<path d="M9.99023 14.1899C9.43023 14.1899 8.99023 13.7399 8.99023 13.1899C8.99023 12.6399 9.44023 12.1899 9.99023 12.1899C10.5402 12.1899 10.9902 12.6399 10.9902 13.1899C10.9902 13.7399 10.5502 14.1899 9.99023 14.1899Z" />
<path d="M13.1899 14.1899C12.6299 14.1899 12.1899 13.7399 12.1899 13.1899C12.1899 12.6399 12.6399 12.1899 13.1899 12.1899C13.7399 12.1899 14.1899 12.6399 14.1899 13.1899C14.1899 13.7399 13.7399 14.1899 13.1899 14.1899Z" />
<path d="M6.7998 14.1899C6.2398 14.1899 5.7998 13.7399 5.7998 13.1899C5.7998 12.6399 6.2498 12.1899 6.7998 12.1899C7.3498 12.1899 7.7998 12.6399 7.7998 13.1899C7.7998 13.7399 7.3498 14.1899 6.7998 14.1899Z" />
<path d="M17.9401 16.29C17.7401 16.29 17.5401 16.21 17.4001 16.06C17.2401 15.9 17.1701 15.67 17.2001 15.45C17.2301 15.24 17.2401 15.02 17.2401 14.79V10.79C17.2401 8.00001 15.9901 6.75 13.2001 6.75H6.80012C6.57012 6.75 6.35015 6.76 6.14015 6.78C5.92015 6.81 5.69013 6.72999 5.53013 6.57999C5.37013 6.41999 5.28012 6.20001 5.30012 5.98001C5.48012 3.82001 6.59012 1.25 10.8001 1.25H17.2001C20.8201 1.25 22.7401 3.17001 22.7401 6.79001V10.79C22.7401 15 20.1701 16.1 18.0101 16.29C17.9801 16.29 17.9601 16.29 17.9401 16.29ZM6.92015 5.25H13.1901C16.8101 5.25 18.7301 7.17001 18.7301 10.79V14.66C20.4301 14.24 21.2301 12.99 21.2301 10.79V6.79001C21.2301 4.00001 19.9801 2.75 17.1901 2.75H10.7901C8.59014 2.75 7.35015 3.55 6.92015 5.25Z" />
</svg>

<?xml version="1.0" encoding="UTF-8"?>
<svg width="24" height="24" viewBox="0 0 24 24" xmlns="http://www.w3.org/2000/svg">
 <path d="m9.99 22.78c-0.6 0-1.17-0.3-1.56-0.83l-1.2-1.6c0 0.01-0.05001-0.02-0.07001-0.02h-0.36999c-3.42 0-5.54-0.93-5.54-5.54v-4c0-4.21 2.57-5.31 4.73-5.5 0.24-0.03 0.52-0.04001 0.81-0.04001h6.4c3.62 0 5.54 1.92 5.54 5.54v4c0 0.29-0.01 0.57-0.05 0.84-0.18 2.13-1.28 4.7-5.49 4.7h-0.4l-1.24 1.62c-0.39 0.53-0.96 0.83-1.56 0.83zm-3.2-16.03c-0.23 0-0.45001 0.01-0.66001 0.03-2.32 0.2-3.38 1.47-3.38 4.01v4c0 3.43 1.06 4.04 4.04 4.04h0.39999c0.45 0 0.95999 0.25 1.24 0.61l1.2 1.61c0.22001 0.3 0.5 0.3 0.72 0l1.2-1.6c0.29-0.39 0.75-0.62 1.24-0.62h0.4c2.54 0 3.81-1.07 4-3.35 0.03-0.24 0.04-0.46 0.04-0.69v-4c0-2.79-1.25-4.04-4.04-4.04h-6.4z"/>
 <path d="m9.9902 14.19c-0.56 0-1-0.45-1-1s0.45-1 1-1c0.54997 0 0.99997 0.45 0.99997 1s-0.44 1-0.99997 1z"/>
 <path d="m13.19 14.19c-0.56 0-1-0.45-1-1s0.45-1 1-1 1 0.45 1 1-0.45 1-1 1z"/>
 <path d="m6.7998 14.19c-0.56 0-1-0.45-1-1s0.45-1 1-1 1 0.45 1 1-0.45 1-1 1z"/>
 <path d="m17.94 16.29c-0.2 0-0.4-0.08-0.54-0.23-0.16-0.16-0.23-0.39-0.2-0.61 0.03-0.21 0.04-0.43 0.04-0.66v-4c0-2.79-1.25-4.04-4.04-4.04h-6.4c-0.23 0-0.44997 0.01-0.65997 0.03-0.22 0.03-0.45002-0.05001-0.61002-0.20001-0.16-0.16-0.25001-0.37998-0.23001-0.59998 0.18-2.16 1.29-4.73 5.5-4.73h6.4c3.62 0 5.54 1.92 5.54 5.54v4c0 4.21-2.57 5.31-4.73 5.5h-0.07zm-11.02-11.04h6.27c3.62 0 5.54 1.92 5.54 5.54v3.87c1.7-0.42 2.5-1.67 2.5-3.87v-4c0-2.79-1.25-4.04-4.04-4.04h-6.4c-2.2 0-3.44 0.8-3.87 2.5z"/>
</svg>
